X: 40
T: The PARLIAMENT HOUSE
%R: hornpipe, reel
B: Jean White "100 Popular Hornpipes, Reels, Jigs and Country Dances", Boston 1880 p.18
F: http://www.loc.gov/resource/sm1880.09124.0#seq-1
Z: 2014 John Chambers <jc:trillian.mit.edu>
M: C|
L: 1/8
K: Bb
% - - - - - - - - - - - - - - - - - - - - - - - - - - - - -
DC |\
B,DFB dFED | CEAc eGFE |\
DB,FD BFdB | A>Bc2 c2DC |
B,DFB dFED | CEGc eGFE |\
DFEG Fgfe | d2 {c}B>A B2 :|
|: g>a |\
bfdf Bdfb | fdBd bfdB |\
ecge dBfd | e2 {d}c>B c2 (3edc |
BGFE DFBd | cAGF EGce |\
(3gab Bd cAFe | d2 {c}B>A B2 H:|
% - - - - - - - - - - - - - - - - - - - - - - - - - - - - -

%%sep 1 1 500
%%sep 1 1 500
